X:6768
T:Hanter-dro 1
G:Kazimodal
R:Hanter-dro
C:Traditionnel, arrangement Ronan Keryell http://kazimodal.trad.org
Q:C2=116
P:A5
M:3/4
S:Tonioù Breizh-Izel 1926 (Pleuigner)
K:G
P:A
%MIDI  gchord fcfcfc
%MIDI  chordprog 105
%MIDI  bassprog 32
%MIDI  bassvol 127
%\large
|: "G"{GA}GF/2G/2 "Am"(Ac) "Bm"{Bc}BG | "C"(AB/2)c/2 "D"dc "Em"{Bc}BG |\
"G"{GA}GF/2G/2 "Am"(Ac) "Bm"{Bc}BG | "C"(AB/2)c/2 "D"d{cB}c A2 :|
|: "G"{Bc}BA/2B/2 "Am"dd "Em"(BG) | "C"{GA}GF/2G/2 "Am"(BA/2)G/2 "D"A2 |\
"G"{Bc}BA/2B/2 "Bm"dc "Em"(BG) | "C"{GA}GF/2G/2 "D"(AB) "G"G2 :|
\bigskip


